dist/images/icons/icon-expensive.svg

<svg width="66" height="65" viewBox="0 0 66 65" fill="none" xmlns="http://www.w3.org/2000/svg">
<g opacity="0.1">
<rect x="0.75" y="0.75" width="64.5" height="63" rx="9.75" fill="#D9D9D9"/>
<rect x="0.75" y="0.75" width="64.5" height="63" rx="9.75" fill="url(#paint0_linear_502_66)"/>
<rect x="0.75" y="0.75" width="64.5" height="63" rx="9.75" stroke="url(#paint1_linear_502_66)" stroke-width="1.5"/>
</g>
<path fill-rule="evenodd" clip-rule="evenodd" d="M38.891 19.083C38.3355 19.3252 38.1483 20.0989 38.5341 20.5579C38.8236 20.9024 38.96 20.929 40.4398 20.929H41.7867L38.6081 24.1115L35.4294 27.294L32.7621 24.6285C29.8731 21.7416 29.972 21.8216 29.4169 21.9218C29.2171 21.9577 28.7722 22.3816 25.5937 25.564C21.6911 29.4713 21.8522 29.2819 21.957 29.8414C22.0126 30.1384 22.3732 30.4993 22.6698 30.555C23.2244 30.6592 23.0808 30.7789 26.4938 27.3671L29.6427 24.2192L32.3096 26.8842C35.1983 29.7709 35.0996 29.6911 35.6546 29.5905C35.8541 29.5544 36.3061 29.1241 39.5117 25.9188L43.1429 22.288V23.6318C43.1429 25.1457 43.1684 25.2695 43.5386 25.5522C43.7285 25.6972 43.8238 25.7261 44.1131 25.7261C44.4878 25.7261 44.6821 25.6257 44.917 25.3106C45.0383 25.148 45.0413 25.0775 45.0413 22.3831V19.6222L44.8676 19.3943C44.5636 18.9952 44.5842 18.9978 41.6833 19.0004C39.6511 19.0023 39.0342 19.0205 38.891 19.083ZM39.7679 30.6196C38.4593 30.7756 37.5079 31.042 36.6323 31.4974C35.4793 32.0971 34.7318 32.9487 34.5321 33.8901C34.4856 34.1092 34.4643 35.5065 34.4643 38.3276C34.4643 42.8517 34.4607 42.8012 34.834 43.5025C35.0321 43.8747 35.6108 44.4866 36.0399 44.7777C36.7695 45.2725 37.8663 45.6873 38.9844 45.891C39.7935 46.0385 41.6806 46.0358 42.51 45.8861C44.5023 45.5265 46.0838 44.5913 46.675 43.4233C46.9995 42.7822 47 42.7738 47 38.3071C47 33.8404 46.9995 33.832 46.675 33.1909C46.0869 32.0291 44.4859 31.0787 42.5402 30.7365C41.9931 30.6403 40.221 30.5656 39.7679 30.6196ZM39.6606 32.5789C38.495 32.7305 37.3538 33.1924 36.7948 33.7388C36.2627 34.259 36.2627 34.6316 36.7948 35.1518C37.7257 36.0618 39.8261 36.553 41.7583 36.3127C42.872 36.1742 44.0067 35.7496 44.5763 35.2584C44.8477 35.0243 45.0714 34.657 45.0714 34.4453C45.0714 34.2336 44.8477 33.8663 44.5763 33.6322C44.2296 33.3332 43.3432 32.9108 42.7511 32.7623C41.8151 32.5277 40.6063 32.4559 39.6606 32.5789ZM25.3036 34.4814C23.995 34.6374 23.0436 34.9038 22.168 35.3592C21.015 35.9589 20.2675 36.8105 20.0678 37.7519C20.0247 37.9553 20 38.868 20 40.2585C20 42.6647 20.0208 42.847 20.3697 43.5025C20.5678 43.8747 21.1465 44.4866 21.5756 44.7777C22.3052 45.2725 23.4021 45.6873 24.5201 45.891C25.3292 46.0385 27.2164 46.0358 28.0458 45.8861C30.038 45.5265 31.6195 44.5913 32.2107 43.4233C32.5138 42.8244 32.5357 42.6098 32.5357 40.238C32.5357 37.8662 32.5138 37.6516 32.2107 37.0527C31.6227 35.8909 30.0216 34.9405 28.0759 34.5983C27.5288 34.5021 25.7567 34.4274 25.3036 34.4814ZM25.1964 36.4407C24.0307 36.5923 22.8895 37.0543 22.3305 37.6006C21.7984 38.1208 21.7984 38.4934 22.3305 39.0136C23.2615 39.9236 25.3618 40.4148 27.294 40.1745C28.4077 40.036 29.5425 39.6114 30.112 39.1202C30.3834 38.8861 30.6071 38.5188 30.6071 38.3071C30.6071 38.0954 30.3834 37.7281 30.112 37.494C29.7653 37.195 28.879 36.7726 28.2868 36.6241C27.3508 36.3895 26.142 36.3177 25.1964 36.4407ZM36.3929 37.8644C36.3929 38.5514 36.4693 38.7497 36.8678 39.0966C37.8477 39.9498 39.9103 40.4044 41.7583 40.1745C42.872 40.036 44.0067 39.6114 44.5763 39.1202C44.9774 38.7743 45.0714 38.5351 45.0714 37.8609V37.2892L44.5739 37.5226C43.4327 38.058 42.3367 38.2717 40.7321 38.2717C39.1276 38.2717 38.0315 38.058 36.8904 37.5226L36.3929 37.2892V37.8644ZM21.9286 41.7263C21.9286 42.4132 22.005 42.6115 22.4035 42.9584C23.3834 43.8116 25.446 44.2662 27.294 44.0363C28.4077 43.8978 29.5425 43.4732 30.112 42.982C30.5131 42.6361 30.6071 42.3969 30.6071 41.7227V41.151L30.1096 41.3844C28.9685 41.9198 27.8724 42.1336 26.2679 42.1336C24.6633 42.1336 23.5673 41.9198 22.4261 41.3844L21.9286 41.151V41.7263ZM36.3929 41.7263C36.3929 42.4132 36.4693 42.6115 36.8678 42.9584C37.8477 43.8116 39.9103 44.2662 41.7583 44.0363C42.872 43.8978 44.0067 43.4732 44.5763 42.982C44.9774 42.6361 45.0714 42.3969 45.0714 41.7227V41.151L44.5739 41.3844C43.4327 41.9198 42.3367 42.1336 40.7321 42.1336C39.1276 42.1336 38.0315 41.9198 36.8904 41.3844L36.3929 41.151V41.7263Z" fill="#BAE9F1"/>
<defs>
<linearGradient id="paint0_linear_502_66" x1="33" y1="0" x2="52.1042" y2="87.4143" gradientUnits="userSpaceOnUse">
<stop stop-color="#2C4262"/>
<stop offset="1" stop-color="#202F45"/>
</linearGradient>
<linearGradient id="paint1_linear_502_66" x1="33" y1="0" x2="33" y2="64.5" gradientUnits="userSpaceOnUse">
<stop stop-color="white"/>
<stop offset="1" stop-color="white" stop-opacity="0"/>
</linearGradient>
</defs>
</svg>

<svg width="66" height="65" fill="none" xmlns="http://www.w3.org/2000/svg"><g opacity=".1"><rect x=".75" y=".75" width="64.5" height="63" rx="9.75" fill="#D9D9D9"/><rect x=".75" y=".75" width="64.5" height="63" rx="9.75" fill="url(#paint0_linear_502_66)"/><rect x=".75" y=".75" width="64.5" height="63" rx="9.75" stroke="url(#paint1_linear_502_66)" stroke-width="1.5"/></g><path fill-rule="evenodd" clip-rule="evenodd" d="M38.891 19.083c-.555.242-.743 1.016-.357 1.475.29.344.426.371 1.906.371h1.347l-3.179 3.183-3.179 3.182-2.667-2.666c-2.889-2.886-2.79-2.806-3.345-2.706-.2.036-.645.46-3.823 3.642-3.903 3.907-3.742 3.718-3.637 4.277.056.297.416.658.713.714.554.104.41.224 3.824-3.188l3.149-3.148 2.667 2.665c2.888 2.887 2.79 2.807 3.345 2.706.2-.036.651-.466 3.857-3.671l3.63-3.631v1.344c0 1.514.026 1.637.397 1.92.19.145.285.174.574.174.375 0 .57-.1.804-.415.121-.163.124-.233.124-2.928v-2.76l-.173-.229c-.304-.399-.284-.396-3.185-.394-2.032.002-2.649.02-2.792.083zm.877 11.537c-1.309.156-2.26.422-3.136.877-1.153.6-1.9 1.452-2.1 2.393-.046.22-.068 1.617-.068 4.438 0 4.524-.003 4.473.37 5.174.198.373.777.985 1.206 1.276.73.495 1.826.91 2.944 1.113.81.148 2.697.145 3.526-.005 1.992-.36 3.574-1.295 4.165-2.463.325-.64.325-.65.325-5.116 0-4.467 0-4.475-.325-5.116-.588-1.162-2.19-2.112-4.135-2.455-.547-.096-2.319-.17-2.772-.116zm-.107 1.959c-1.166.151-2.307.613-2.866 1.16-.532.52-.532.893 0 1.413.93.91 3.031 1.401 4.963 1.16 1.114-.138 2.249-.562 2.818-1.054.272-.234.495-.601.495-.813 0-.211-.223-.579-.495-.813-.346-.299-1.233-.721-1.825-.87a9.003 9.003 0 00-3.09-.183zM25.304 34.48c-1.309.156-2.26.423-3.136.878-1.153.6-1.9 1.451-2.1 2.393-.043.203-.068 1.116-.068 2.506 0 2.407.02 2.589.37 3.244.198.373.776.985 1.206 1.276.73.495 1.826.91 2.944 1.113.81.148 2.696.145 3.526-.005 1.992-.36 3.573-1.295 4.165-2.463.303-.599.325-.813.325-3.185s-.022-2.586-.325-3.185c-.588-1.162-2.19-2.112-4.135-2.455-.547-.096-2.32-.17-2.772-.117zm-.108 1.96c-1.165.151-2.306.613-2.866 1.16-.532.52-.532.892 0 1.413.932.91 3.032 1.4 4.964 1.16 1.114-.138 2.248-.563 2.818-1.054.271-.234.495-.601.495-.813 0-.212-.224-.579-.495-.813-.347-.299-1.233-.721-1.825-.87a9.002 9.002 0 00-3.09-.183zm11.197 1.423c0 .687.076.886.475 1.233.98.853 3.042 1.307 4.89 1.078 1.114-.139 2.249-.564 2.818-1.055.401-.346.495-.585.495-1.26v-.57l-.497.233c-1.141.535-2.237.749-3.842.749-1.604 0-2.7-.214-3.842-.75l-.497-.233v.575zm-14.464 3.862c0 .687.076.886.475 1.232.98.854 3.042 1.308 4.89 1.078 1.114-.138 2.248-.563 2.818-1.054.401-.346.495-.585.495-1.26v-.571l-.497.233c-1.142.536-2.238.75-3.842.75-1.605 0-2.7-.214-3.842-.75l-.497-.233v.575zm14.464 0c0 .687.076.886.475 1.232.98.854 3.042 1.308 4.89 1.078 1.114-.138 2.249-.563 2.818-1.054.401-.346.495-.585.495-1.26v-.571l-.497.233c-1.141.536-2.237.75-3.842.75-1.604 0-2.7-.214-3.842-.75l-.497-.233v.575z" fill="#BAE9F1"/><defs><linearGradient id="paint0_linear_502_66" x1="33" y1="0" x2="52.104" y2="87.414" gradientUnits="userSpaceOnUse"><stop stop-color="#2C4262"/><stop offset="1" stop-color="#202F45"/></linearGradient><linearGradient id="paint1_linear_502_66" x1="33" y1="0" x2="33" y2="64.5" gradientUnits="userSpaceOnUse"><stop stop-color="#fff"/><stop offset="1" stop-color="#fff" stop-opacity="0"/></linearGradient></defs></svg>
